X:1
T: Eleget könyörgék apámnak, s anyámnak
M: 4/4
L: 1/8
K: B
G G d e d4 | c4 z4 | 
d c B A c4 | B4 z4 |
_A G =A =B c4 | d4 z4 |
c B d c B4 | A4 z4 |

